svg/regular/bx-border-radius.svg

<svg xmlns="http://www.w3.org/2000/svg" width="24" height="24"><path d="M19 19h2v2h-2zM7 19h2v2H7zm8 0h2v2h-2zm-4 0h2v2h-2zm-8 0h2v2H3zm0-4h2v2H3zm0-8h2v2H3zm0 4h2v2H3zm0-8h2v2H3zm4 0h2v2H7zm12 12h2v2h-2zM16 3h-5v2h5c1.654 0 3 1.346 3 3v5h2V8c0-2.757-2.243-5-5-5z"/></svg>

<svg xmlns="http://www.w3.org/2000/svg" width="24" height="24" viewBox="0 0 24 24"><path d="M19 19H21V21H19zM7 19H9V21H7zM15 19H17V21H15zM11 19H13V21H11zM3 19H5V21H3zM3 15H5V17H3zM3 7H5V9H3zM3 11H5V13H3zM3 3H5V5H3zM7 3H9V5H7zM19 15H21V17H19zM16 3h-3-1-1v2h1 1 3c1.654 0 3 1.346 3 3v3 1 1h2v-1-1V8C21 5.243 18.757 3 16 3z"/></svg>
